X:185
T: BIN EIN LUSTGER GRENADIER
N: E1327A
O: Europa, Mitteleuropa, Deutschland, Berlin
R: Staende -, Soldaten -, Kriegs - Lied
M: 2/4
L: 1/16
K: G
 | B2G2G2E2 | E2D2D4
A2c2A4 | D2B2G4
B2G2G2E2 | E2D2D4
D2c2A2F2 | G4z2
B2 | A3BA2B2 | A2B2A4
A2A2B2^c2 | d2D2D4
G2G2B4 | B2d2d4
d2c2c2c2 | e2d2d4
G2G2B4 | B2B2d4
d2c2A2F2 | G4z4

